X: 2367
T: Baitheadh Bhrioclais
R: jig
M: 6/8
K: Gmajor
|:g|fed efg|ded dBG|ABA A2E|ABA A2g|
fed efg|ded dBG|AGA B2A|1 G3G2:|2 G3GAB||
|:cBc e2d|BAB dBG|ABA A2E|ABA A2B|
cBc e2d|BAB dBG|AGA B2A|1 G3GAB:|2 G3G2||

